www/assets/icons/shield_moon.svg

<svg xmlns="http://www.w3.org/2000/svg" width="24" height="24" viewBox="0 0 24 24" fill='currentColor'><path d="M12 2 4 5v6.09c0 5.05 3.41 9.76 8 10.91 4.59-1.15 8-5.86 8-10.91V5zm3.97 12.41c-1.84 2.17-5.21 2.1-6.96-.07-2.19-2.72-.65-6.72 2.69-7.33.34-.06.63.27.51.6-.46 1.23-.39 2.64.32 3.86a4.51 4.51 0 0 0 3.18 2.2c.34.05.49.47.26.74"/></svg>

<svg width="24" height="24" viewBox="0 0 24 24" xmlns="http://www.w3.org/2000/svg" fill='currentColor'><path d="M12 2L4 5V11.09C4 16.14 7.41 20.85 12 22C16.59 20.85 20 16.14 20 11.09V5L12 2ZM15.97 14.41C14.13 16.58 10.76 16.51 9.01 14.34C6.82 11.62 8.36 7.62 11.7 7.01C12.04 6.95 12.33 7.28 12.21 7.61C11.75 8.84 11.82 10.25 12.53 11.47C13.24 12.69 14.42 13.46 15.71 13.67C16.05 13.72 16.2 14.14 15.97 14.41Z"/></svg>
